!!!OTL: Soldatenabschied (2-57) S. 179
!!!id: P0930
**kern
*clefG2
*k[f#]
*e:
{8e
=1
8e
4b
4b
4g
4b
=2
8a
8a
4g
4a
4e}
=3
4r
=4
{8g
8f#
4e
4a
=5
8g
8g
4f#
4e
4d}
=6
4r
=7
{8d
8d
4g
8d
8d
=8
4g
4d
4g
4a
=9
2b}
=10
{4a
4b
=11
8g
8f#
4e
8d#
8e
4f#
=12
2e}
2r
==
*-
!!!minrhy: 8
!!!meters: 4/4 ]  ZZ[4
!!!cut: Soldatenabschied (2-57) S. 179
!!!reg: Lothringen
!!!trd: PINCK, Louis: Verklingende Weisen, Bd 2, Metz 1928
!!!rhy1:   X_X_X_X_  XXX_X_X_  0_
!!!rhy2: XXX_X_  XXX_X_X_  0_
!!!key: P0930  08  E 4/4 ]  ZZ[4
!!!mod: HEPTATONIK MOLL ?]  AMBITUS[6
!!!kad: 1-7b51
!!!akz: 53b44_13b1_3b3b3b5_43b-71_
!!!fot: 'a__b__c__d__
!!!for: 'a__b__aw_c__
!!!fok: '\__\__/__\__
!! PHRAS[VORWIEGEND AUFTAKTIG]
!!!fkt: Soldatenlied, Abschied, Liebe
!! LOTH VKL
!! PR[19] 2K[7] 2G[10] 3K[7] 3G[5] 4A[10] 4Ü[0] 5A[0] 6K[2] 6G[0]
!! 7K[0] 7G[0] 8A[0] MEHR[0] SI[40] ABS[42] SR[17] SP[24]
!! ST[12] 2k[7] 2g[12] 3k[12] 3g[2] 4d[2] 4ü[0] 5d[2] 6k[0] 6g[0]
!! 7k[0] 7g[0] 8d[2] mehr[0] si[40] dm[0] sr[19] sp[21]
!! 1F[14] 2F[23] 3F[41] 4F[5] LF[0] 2P[14] 3P[5] 4P[0] TRI[0] DF[6] AB[44]
!! TF[0] U3K[0] U3[0] U4[0] U4Ü[0] U5[16] U6K[0] U6[14] U7K[0] U7[12]
!! N1[14] N2K[0] N2[12] N3K[0] N3[16] N4[5] N4Ü[0] N5[12] N6K[0] N6[0]
!!!n7k: 0] N7[0] O1[0] O2K[0] O2[0] O3K[0] O3[0] HÖ[0
